images/avatar.svg

<?xml version="1.0" encoding="UTF-8" standalone="no"?>
<svg
   xmlns:dc="http://purl.org/dc/elements/1.1/"
   xmlns:cc="http://creativecommons.org/ns#"
   xmlns:rdf="http://www.w3.org/1999/02/22-rdf-syntax-ns#"
   xmlns:svg="http://www.w3.org/2000/svg"
   xmlns="http://www.w3.org/2000/svg"
   xmlns:sodipodi="http://sodipodi.sourceforge.net/DTD/sodipodi-0.dtd"
   xmlns:inkscape="http://www.inkscape.org/namespaces/inkscape"
   width="16"
   height="16"
   version="1.1"
   id="svg4"
   sodipodi:docname="avatar.svg"
   inkscape:version="1.0.2 (e86c870879, 2021-01-15)">
  <metadata
     id="metadata10">
    <rdf:RDF>
      <cc:Work
         rdf:about="">
        <dc:format>image/svg+xml</dc:format>
        <dc:type
           rdf:resource="http://purl.org/dc/dcmitype/StillImage" />
      </cc:Work>
    </rdf:RDF>
  </metadata>
  <defs
     id="defs8" />
  <sodipodi:namedview
     pagecolor="#ffffff"
     bordercolor="#666666"
     borderopacity="1"
     objecttolerance="10"
     gridtolerance="10"
     guidetolerance="10"
     inkscape:pageopacity="0"
     inkscape:pageshadow="2"
     inkscape:window-width="759"
     inkscape:window-height="480"
     id="namedview6"
     showgrid="false"
     inkscape:zoom="12.020815"
     inkscape:cx="7.2284187"
     inkscape:cy="6.5949156"
     inkscape:window-x="0"
     inkscape:window-y="24"
     inkscape:window-maximized="0"
     inkscape:current-layer="svg4" />
  <path
     d="M 8,-1.65e-7 C 3.581722,-1.65e-7 0,3.5817218 0,7.9999998 0.00112947,11.901094 2.8158542,15.232542 6.662,15.885 c 0.2625698,0.04519 0.527233,0.07723 0.793,0.096 0.181398,0.01253 0.3631702,0.01886 0.545,0.019 0.5340117,-1.32e-4 1.0666685,-0.05373 1.59,-0.16 0.2607823,-0.05277 0.51877,-0.11852 0.773,-0.197 1.0515,-0.325746 2.024459,-0.864993 2.858,-1.584 0.115565,-0.0991 0.228277,-0.201472 0.338,-0.307 L 13.555,13.744 C 15.114242,12.23945 15.996502,10.16677 16,7.9999998 16,3.5817218 12.418278,-1.65e-7 8,-1.65e-7 Z M 8,0.99999983 c 3.865993,10e-9 7,3.13400677 7,6.99999997 C 14.996312,9.7909358 14.306319,11.51234 13.072,12.81 11.976191,11.064353 10.174868,13.66437 8.1137832,13.661028 6.0504899,13.66386 4.0196079,11.06562 2.924,12.814 1.6901903,11.514712 1.001585,9.7917675 1,7.9999998 1,4.1340066 4.1340068,0.99999983 8,0.99999983 Z M 8,3.9999998 c -1.1045695,0 -2,0.8954305 -2,2 0,1.1045695 0.8954305,2 2,2 1.1045695,0 2,-0.8954305 2,-2 0,-1.1045695 -0.8954305,-2 -2,-2 z"
     color="#363636"
     fill="currentColor"
     id="path2"
     sodipodi:nodetypes="sccccccccccsscccccssssss" />
</svg>

<svg width="16" height="16" version="1.1" xmlns="http://www.w3.org/2000/svg">
 <path d="m8-1.65e-7a8 8 0 0 0-8 8 8 8 0 0 0 6.662 7.885 8 8 0 0 0 0.793 0.096 8 8 0 0 0 0.545 0.019 8 8 0 0 0 1.59-0.16 8 8 0 0 0 0.773-0.197 8 8 0 0 0 2.858-1.584 8 8 0 0 0 0.338-0.307 6 6 0 0 0-4e-3 -8e-3 8 8 0 0 0 2.445-5.744 8 8 0 0 0-8-8zm0 1a7 7 0 0 1 7 7 7 7 0 0 1-1.928 4.81 6 6 0 0 0-5.072-2.81 6 6 0 0 0-5.076 2.814 7 7 0 0 1-1.924-4.814 7 7 0 0 1 7-7zm0 3a2 2 0 0 0-2 2 2 2 0 0 0 2 2 2 2 0 0 0 2-2 2 2 0 0 0-2-2z" color="#363636" fill="currentColor"/>
</svg>
